assets/img/question_mark.svg

<?xml version="1.0" encoding="UTF-8"?>
<svg width="14px" height="20px" viewBox="0 0 14 20" version="1.1" xmlns="http://www.w3.org/2000/svg" xmlns:xlink="http://www.w3.org/1999/xlink">
    <!-- Generator: Sketch 50.2 (55047) - http://www.bohemiancoding.com/sketch -->
    <title>question mark</title>
    <desc>Created with Sketch.</desc>
    <defs></defs>
    <g id="Symbols" stroke="none" stroke-width="1" fill="none" fill-rule="evenodd">
        <g id="nav" transform="translate(-134.000000, -16.000000)" fill="#CDC1E1" fill-rule="nonzero">
            <g id="question-mark">
                <g transform="translate(134.000000, 16.000000)">
                    <g id="Group">
                        <ellipse id="Oval" cx="6.89655172" cy="17.9090909" rx="2.11494253" ry="2.09090909"></ellipse>
                        <path d="M7.63218391,8.45454545 C5.79310345,9.18181818 4.59770115,10.9545455 4.59770115,13 L4.59770115,13.7272727 L9.1954023,13.7272727 L9.1954023,13 C9.1954023,12.8636364 9.28735632,12.7272727 9.33333333,12.6818182 C11.954023,11.6363636 13.6091954,9.09090909 13.5172414,6.27272727 C13.3793103,2.90909091 10.5747126,0.181818182 7.2183908,0.0454545455 C5.37931034,-0.0454545455 3.63218391,0.590909091 2.34482759,1.86363636 C1.05747126,3.09090909 0.275862069,4.81818182 0.275862069,6.59090909 L4.87356322,6.59090909 C4.87356322,6.04545455 5.10344828,5.5 5.51724138,5.13636364 C5.93103448,4.77272727 6.43678161,4.54545455 7.03448276,4.59090909 C8.04597701,4.63636364 8.91954023,5.5 8.96551724,6.5 C8.96551724,7.31818182 8.45977011,8.13636364 7.63218391,8.45454545 Z" id="Shape"></path>
                    </g>
                </g>
            </g>
        </g>
    </g>
</svg>

<svg width="14" height="20" viewBox="0 0 14 20" xmlns="http://www.w3.org/2000/svg"><title>question mark</title><g fill="#CDC1E1"><ellipse cx="6.897" cy="17.909" rx="2.115" ry="2.091"/><path d="M7.632 8.455c-1.839.727-3.034 2.5-3.034 4.545v.727h4.597V13c0-.136.092-.273.138-.318a6.634 6.634 0 0 0 4.184-6.41C13.38 2.91 10.575.183 7.218.046 5.38-.045 3.632.591 2.345 1.864 1.057 3.09.275 4.818.275 6.59h4.599c0-.546.23-1.091.643-1.455.414-.363.92-.59 1.517-.545C8.046 4.636 8.92 5.5 8.966 6.5c0 .818-.506 1.636-1.334 1.955z"/></g></svg>
